src/assets/voice_message_icons/send-message.svg

<svg fill="none" height="24" viewBox="0 0 24 24" width="24" xmlns="http://www.w3.org/2000/svg"><circle cx="12" cy="12" fill="#1855d1" r="12"/><path clip-rule="evenodd" d="m13.3839 6.21428c-.3617-.7608-1.4445-.7608-1.8062 0l-4.66087 9.80282c-.3155.6635.16837 1.4294.90312 1.4294h3.66985l.8334-5.626c.0083-.0559.0884-.0574.0987-.0018l1.0422 5.6278h3.6776c.7347 0 1.2186-.7659.9031-1.4294z" fill="#fff" fill-rule="evenodd" transform="translate(-.5)"/></svg>

<svg width="24" height="24" viewBox="0 0 24 24" fill="none" xmlns="http://www.w3.org/2000/svg">
<g id="Message send button">
<circle id="Ellipse 36" cx="12" cy="12" r="12" fill="#1855D1"/>
<path transform="translate(-0.5, 0)" id="Subtract" fill-rule="evenodd" clip-rule="evenodd" d="M13.3839 6.21428C13.0222 5.45348 11.9394 5.45348 11.5777 6.21428L6.91683 16.0171C6.60133 16.6806 7.0852 17.4465 7.81995 17.4465H11.4898L12.3232 11.8205C12.3315 11.7646 12.4116 11.7631 12.4219 11.8187L13.4641 17.4465H17.1417C17.8764 17.4465 18.3603 16.6806 18.0448 16.0171L13.3839 6.21428Z" fill="white"/>
</g>
</svg>
